X:16891
T:The Jig of Slurs
Z:Jack Campin <http://www.purr.demon.co.uk/jack/> version 1.0 September 2001
C:Geo. S. McLennan
S:G.S. McLennan, Highland Bagpipe Music book 1, 1929
B:NLS MH.s.234
R:Jig
M:6/8
L:1/8
Q:3/8=116
N:upbeats in parts 1 and 4 added
K:Hp
B   |{g}A>d{c}d  {gde}dcd    |  {g}B>d{c}d   {g}A>d{c}d  |\
     {g}B>d{c}d    {g}A>d{c}d|  {g}B>e{A}e {gef}ede      |
     {g}A>d{c}d  {gde}dcd    |  {g}B>d{c}d   {g}A>d{c}d  |\
     {g}B>d{c}d    {g}c>e{A}e|  {g}f>d{c}d {gdc}d2      :|
B   |{g}A>f{e}f  {gfg}fef    |     a>f{e}f {gfg}fed      |\
     {g}c>e{A}e  {gef}ede    |  {g}f>e{A}e {gef}ed{e}B   |
     {g}A>f{e}f  {gfg}fef    |     a>f{e}f {gfg}fed      |\
     {g}B>d{c}d    {g}c>e{A}e|  {g}f>d{c}d {gdc}d2      :|
B/A/|{g}G>g{f}g    {a}gfg    |     a>g{a}e      g{a}d{e}B|\
     {g}G>g{f}g    {a}gfg    |     a>g{a}e  {gf}g2{a}G   |
     {d}B>g{f}g    {a}gfg    |     a>e{A}e   {a}g>d{c}d  |\
     {g}B>e{A}e    {g}e>g{f}g|{afg}f>d{c}d {gef}e2      :|
B   |{g}G>{d}B{G}B {g}B>d{c}d|  {g}d>e{A}e {gef}ed{e}B   |\
     {g}G>{d}B{G}B {g}B>d{c}d|  {g}d>e{A}e   {g}e>g{f}g  |
     {a}G{d}>B{G}B {g}B>d{c}d|  {g}d>e{A}e {gef}ed{e}B   |\
     {g}B>e{A}e    {g}e>g{f}g|{afg}f>d{c}d {gef}e2      :|


